icons/footer-linkedin.svg

<svg width="24" height="24" viewBox="0 0 24 24" fill="none" xmlns="http://www.w3.org/2000/svg">
<g clip-path="url(#clip0_329742_383)">
<path d="M23.994 24.0001V23.9991H24V15.1971C24 10.8911 23.073 7.5741 18.039 7.5741C15.619 7.5741 13.995 8.9021 13.332 10.1611H13.262V7.9761H8.48901V23.9991H13.459V16.0651C13.459 13.9761 13.855 11.9561 16.442 11.9561C18.991 11.9561 19.029 14.3401 19.029 16.1991V24.0001H23.994Z" fill="#F4F4FD"/>
<path d="M0.395996 7.97693H5.372V23.9999H0.395996V7.97693Z" fill="#F4F4FD"/>
<path d="M2.882 0C1.291 0 0 1.291 0 2.882C0 4.473 1.291 5.791 2.882 5.791C4.473 5.791 5.764 4.473 5.764 2.882C5.763 1.291 4.472 0 2.882 0V0Z" fill="#F4F4FD"/>
</g>
<defs>
<clipPath id="clip0_329742_383">
<rect width="24" height="24" fill="white"/>
</clipPath>
</defs>
</svg>

<svg xmlns="http://www.w3.org/2000/svg" width="24" height="24" fill="none"><g fill="#F4F4FD" clip-path="url(#a)"><path d="M23.994 24H24v-8.803c0-4.306-.927-7.623-5.961-7.623-2.42 0-4.044 1.328-4.707 2.587h-.07V7.976H8.489V24h4.97v-7.934c0-2.089.396-4.109 2.983-4.109 2.549 0 2.587 2.384 2.587 4.243V24h4.965ZM.396 7.977h4.976V24H.396V7.977ZM2.882 0A2.883 2.883 0 0 0 0 2.882c0 1.591 1.291 2.909 2.882 2.909 1.591 0 2.882-1.318 2.882-2.909A2.884 2.884 0 0 0 2.882 0Z"/></g><defs><clipPath id="a"><path fill="#fff" d="M0 0h24v24H0z"/></clipPath></defs></svg>
